icons/evolvere-blue-folders-flat-vivid-dark-fallback/apps/64/mspowerpoint-2007.svg

<svg xmlns="http://www.w3.org/2000/svg" viewBox="0 0 64 64"><g color="#000"><path d="m24 0h38l2 1v26h-64v-3c0-13.296 10.704-24 24-24" fill="#ff9853"/><path d="m24 4c-13.296 0-24 10.704-24 24v6 28l2 2h60l2-2v-58h-24-8-8" fill="#dd4b23"/></g><path d="m64 6l-2-2 2-1z" fill="#1f0700" fill-opacity=".138"/><g color="#000"><path d="m16 24v5h12v-5h-12m25.5 0c-5.799 0-10.5 4.701-10.5 10.5 0 5.799 4.701 10.5 10.5 10.5 5.799 0 10.5-4.701 10.5-10.5 0-5.799-4.701-10.5-10.5-10.5m0 2c4.694 0 8.5 3.806 8.5 8.5h-8.5v-8.5m-25.5 6v5h12v-5h-12m0 8v5h12v-5h-12" fill="#f2e3d0"/><path d="m24 9.5c-10.341 0-18.5 8.159-18.5 18.5v6 24.5h53v-49h-18.5-8-8z" fill="none" stroke="#f2e3d0"/></g></svg>

<?xml version="1.0" encoding="UTF-8" standalone="no"?>
<!-- Created with Inkscape (http://www.inkscape.org/) -->

<svg
   xmlns:dc="http://purl.org/dc/elements/1.1/"
   xmlns:cc="http://creativecommons.org/ns#"
   xmlns:rdf="http://www.w3.org/1999/02/22-rdf-syntax-ns#"
   xmlns:svg="http://www.w3.org/2000/svg"
   xmlns="http://www.w3.org/2000/svg"
   xmlns:sodipodi="http://sodipodi.sourceforge.net/DTD/sodipodi-0.dtd"
   xmlns:inkscape="http://www.inkscape.org/namespaces/inkscape"
   width="64"
   height="64"
   id="svg13094"
   version="1.1"
   inkscape:version="0.48.4 r9939"
   sodipodi:docname="mspowerpoint-2007.svg">
  <sodipodi:namedview
     id="base"
     pagecolor="#ffffff"
     bordercolor="#666666"
     borderopacity="1.0"
     inkscape:pageopacity="0"
     inkscape:pageshadow="2"
     inkscape:zoom="11.313709"
     inkscape:cx="20.957871"
     inkscape:cy="34.050336"
     inkscape:document-units="px"
     inkscape:current-layer="svg13094"
     showgrid="true"
     inkscape:snap-bbox="true"
     inkscape:bbox-paths="true"
     inkscape:bbox-nodes="true"
     inkscape:snap-bbox-edge-midpoints="true"
     inkscape:snap-bbox-midpoints="true"
     inkscape:object-paths="true"
     inkscape:snap-intersection-paths="true"
     inkscape:object-nodes="true"
     inkscape:snap-smooth-nodes="true"
     inkscape:snap-midpoints="true"
     inkscape:snap-object-midpoints="true"
     inkscape:snap-center="true"
     showguides="true"
     inkscape:guide-bbox="true"
     inkscape:window-width="1920"
     inkscape:window-height="1025"
     inkscape:window-x="-2"
     inkscape:window-y="32"
     inkscape:window-maximized="1"
     inkscape:snap-global="true"
     fit-margin-top="0"
     fit-margin-left="0"
     fit-margin-right="0"
     fit-margin-bottom="0"
     showborder="true"
     inkscape:showpageshadow="false"
     inkscape:snap-page="true">
    <inkscape:grid
       type="xygrid"
       id="grid3075"
       empspacing="5"
       visible="true"
       enabled="true"
       snapvisiblegridlinesonly="true"
       originx="0px"
       originy="18px" />
  </sodipodi:namedview>
  <defs
     id="defs13096" />
  <metadata
     id="metadata13099">
    <rdf:RDF>
      <cc:Work
         rdf:about="">
        <dc:format>image/svg+xml</dc:format>
        <dc:type
           rdf:resource="http://purl.org/dc/dcmitype/StillImage" />
        <dc:title />
      </cc:Work>
    </rdf:RDF>
  </metadata>
  <path
     style="color:#000000;fill:#ff9853;fill-opacity:1;fill-rule:nonzero;stroke:none;stroke-width:2.28571415000000000;marker:none;visibility:visible;display:inline;overflow:visible;enable-background:accumulate"
     d="m 24,0 38,0 2,1 0,26 -64,0 0,-3 C 0,10.704 10.704,0 24,0 z"
     id="path3075"
     inkscape:connector-curvature="0"
     sodipodi:nodetypes="sccccss" />
  <path
     inkscape:connector-curvature="0"
     style="color:#000000;fill:#dd4b23;fill-opacity:1;fill-rule:nonzero;stroke:none;stroke-width:2.28571415000000000;marker:none;visibility:visible;display:inline;overflow:visible;enable-background:accumulate"
     d="M 24,4 C 10.704,4 0,14.704 0,28 l 0,6 0,28 2,2 60,0 2,-2 0,-58 -24,0 -8,0 -8,0 z"
     id="path4021" />
  <path
     d="M 64,6 62,4 64,3 z"
     id="path3028"
     style="fill:#1f0700;fill-opacity:0.13759861"
     inkscape:connector-curvature="0" />
  <g
     id="g3043"
     inkscape:export-filename="folder.png"
     inkscape:export-xdpi="90"
     inkscape:export-ydpi="90"
     transform="translate(-0.625,0.082283)" />
  <g
     id="scalable"
     transform="matrix(1.0385892,0,0,1.0385892,1214.7222,1878.8121)"
     inkscape:label="#g3701"
     style="fill:#ffffff" />
  <path
     style="color:#000000;fill:#f2e3d0;fill-opacity:1;fill-rule:nonzero;stroke:none;stroke-width:2.28571415000000000;marker:none;visibility:visible;display:inline;overflow:visible;enable-background:accumulate"
     d="m 16,24 0,5 12,0 0,-5 -12,0 z m 25.5,0 C 35.70101,24 31,28.70101 31,34.5 31,40.29899 35.70101,45 41.5,45 47.29899,45 52,40.29899 52,34.5 52,28.70101 47.29899,24 41.5,24 z m 0,2 c 4.69442,0 8.5,3.80558 8.5,8.5 l -8.5,0 0,-8.5 z m -25.5,6 0,5 12,0 0,-5 -12,0 z m 0,8 0,5 12,0 0,-5 -12,0 z"
     id="rect3911"
     inkscape:connector-curvature="0" />
  <path
     sodipodi:type="inkscape:offset"
     inkscape:radius="-5.5064173"
     inkscape:original="M 24 4 C 10.704 4 0 14.704 0 28 L 0 34 L 0 62 L 2 64 L 62 64 L 64 62 L 64 4 L 40 4 L 32 4 L 24 4 z "
     style="color:#000000;fill:none;stroke:#f2e3d0;stroke-width:1;stroke-miterlimit:4;stroke-dasharray:none;marker:none;visibility:visible;display:inline;overflow:visible;enable-background:accumulate;stroke-opacity:1"
     id="path4025"
     d="M 24,9.5 C 13.659309,9.5 5.5,17.659309 5.5,28 l 0,6 0,24.5 53,0 0,-49 -18.5,0 -8,0 -8,0 z" />
</svg>
